X: 16780
T: Harmonica, The
R: jig
M: 6/8
K: Gmajor
d|g2d B2g|e2c A2G|FGA DEF|G2B def|
g2d B2g|e2c A2G|FGA DEF|G3 G2:|
d|c2a a2c|B2g g2B|ABc def|g2a b2d|
c2a a2c|B2g g2b|agf edc^|d3 dBc|
dBg ecg|dBg ecg|dcB BAG|F2A ABc|
dBg ecg|dBg ecg|dcB AGF|G3 G2||

